src/assets/svg/icons/fa/nuevos/classic/light/xmarks-lines classic light.svg

<svg xmlns="http://www.w3.org/2000/svg" viewBox="0 0 640 512"><path d="M624 32C632.8 32 640 39.16 640 48C640 56.84 632.8 64 624 64H16C7.164 64 .0002 56.84 .0002 48C.0002 39.16 7.164 32 16 32H624zM624 448C632.8 448 640 455.2 640 464C640 472.8 632.8 480 624 480H16C7.164 480 .0002 472.8 .0002 464C.0002 455.2 7.164 448 16 448H624zM228.7 164.7C234.9 158.4 245.1 158.4 251.3 164.7L320 233.4L388.7 164.7C394.9 158.4 405.1 158.4 411.3 164.7C417.6 170.9 417.6 181.1 411.3 187.3L342.6 256L411.3 324.7C417.6 330.9 417.6 341.1 411.3 347.3C405.1 353.6 394.9 353.6 388.7 347.3L320 278.6L251.3 347.3C245.1 353.6 234.9 353.6 228.7 347.3C222.4 341.1 222.4 330.9 228.7 324.7L297.4 256L228.7 187.3C222.4 181.1 222.4 170.9 228.7 164.7zM118.6 256L187.3 324.7C193.6 330.9 193.6 341.1 187.3 347.3C181.1 353.6 170.9 353.6 164.7 347.3L96 278.6L27.31 347.3C21.07 353.6 10.93 353.6 4.686 347.3C-1.562 341.1-1.562 330.9 4.686 324.7L73.37 256L4.686 187.3C-1.562 181.1-1.562 170.9 4.686 164.7C10.93 158.4 21.07 158.4 27.31 164.7L96 233.4L164.7 164.7C170.9 158.4 181.1 158.4 187.3 164.7C193.6 170.9 193.6 181.1 187.3 187.3L118.6 256zM452.7 164.7C458.9 158.4 469.1 158.4 475.3 164.7L544 233.4L612.7 164.7C618.9 158.4 629.1 158.4 635.3 164.7C641.6 170.9 641.6 181.1 635.3 187.3L566.6 256L635.3 324.7C641.6 330.9 641.6 341.1 635.3 347.3C629.1 353.6 618.9 353.6 612.7 347.3L544 278.6L475.3 347.3C469.1 353.6 458.9 353.6 452.7 347.3C446.4 341.1 446.4 330.9 452.7 324.7L521.4 256L452.7 187.3C446.4 181.1 446.4 170.9 452.7 164.7z"/></svg>

<svg xmlns="http://www.w3.org/2000/svg" viewBox="0 0 640 512"><!--! Font Awesome Pro 6.4.0 by @fontawesome - https://fontawesome.com License - https://fontawesome.com/license (Commercial License) Copyright 2023 Fonticons, Inc. --><path d="M16 32H624c8.8 0 16 7.2 16 16s-7.2 16-16 16H16C7.2 64 0 56.8 0 48s7.2-16 16-16zm0 416H624c8.8 0 16 7.2 16 16s-7.2 16-16 16H16c-8.8 0-16-7.2-16-16s7.2-16 16-16zM228.7 164.7c6.2-6.2 16.4-6.2 22.6 0L320 233.4l68.7-68.7c6.2-6.2 16.4-6.2 22.6 0s6.2 16.4 0 22.6L342.6 256l68.7 68.7c6.2 6.2 6.2 16.4 0 22.6s-16.4 6.2-22.6 0L320 278.6l-68.7 68.7c-6.2 6.2-16.4 6.2-22.6 0s-6.2-16.4 0-22.6L297.4 256l-68.7-68.7c-6.2-6.2-6.2-16.4 0-22.6zM118.6 256l68.7 68.7c6.2 6.2 6.2 16.4 0 22.6s-16.4 6.2-22.6 0L96 278.6 27.3 347.3c-6.2 6.2-16.4 6.2-22.6 0s-6.2-16.4 0-22.6L73.4 256 4.7 187.3c-6.2-6.2-6.2-16.4 0-22.6s16.4-6.2 22.6 0L96 233.4l68.7-68.7c6.2-6.2 16.4-6.2 22.6 0s6.2 16.4 0 22.6L118.6 256zm334.1-91.3c6.2-6.2 16.4-6.2 22.6 0L544 233.4l68.7-68.7c6.2-6.2 16.4-6.2 22.6 0s6.2 16.4 0 22.6L566.6 256l68.7 68.7c6.2 6.2 6.2 16.4 0 22.6s-16.4 6.2-22.6 0L544 278.6l-68.7 68.7c-6.2 6.2-16.4 6.2-22.6 0s-6.2-16.4 0-22.6L521.4 256l-68.7-68.7c-6.2-6.2-6.2-16.4 0-22.6z"/></svg>
